app/dist/common/images/agco.svg

<svg height="18" width="18" xmlns="http://www.w3.org/2000/svg"><path d="m0 0h18v18h-18z" fill="#c41230"/><path d="m11.533 8.533-2.527-4.533-5.006 9zm-5.716 4.467 5.86-4.204-.144-.263-7.533 4.467zm1.83 0 4.235-3.823-.204-.381-5.86 4.204h1.828zm1.792 0 2.756-3.285-.313-.538-4.236 3.823h1.794zm4.561 0s-1.24-2.194-1.805-3.285l-2.756 3.285z" fill="#fff"/></svg>

<!-- by TradingView --><svg width="18" height="18" xmlns="http://www.w3.org/2000/svg"><path fill="#C41230" d="M0 0h18v18H0z"/><path d="M11.533 8.533L9.006 4 4 13l7.533-4.467zM5.817 13l5.86-4.204-.144-.263L4 13h1.817zm1.83 0l4.235-3.823-.204-.381L5.818 13h1.828zm1.792 0l2.756-3.285-.313-.538L7.646 13H9.44zM14 13s-1.24-2.194-1.805-3.285L9.439 13H14z" fill="#fff"/></svg>
